X: 26188
T: McMahon's
R: hornpipe
M: 4/4
K: Dmajor
C>B,|A,>DF>D G>EF>D|(3A,A,A, (3DFA d>cd>e|f>ed>B A2 F2|G>FE>D C2 B,2|
A,>DF>D G>EF>D|(3A,A,A, (3DFA d>cd>e|f>dd>d A2 FA|GE CE D2:|
|:d>e|f2 (3ddd e>dB>c|d2 (3BBB B>AF>A|B2 (3FFF A>Fd>c|B>AG>F E>FD>B,|
A,>DF>D G>EF>D|(3A,A,A, (3DFA d>cd>e|f>dd>d A2 F>A|G>EC>E D2:|

